X: 26730
T: Mike's Ride
R: reel
M: 4/4
K: Dmajor
|f3e fedB|A2 dA B2 AG|A2 dA B2 AG|F3A GFED|
f3e fedB|A2 dA B2 AG|A2 dB ABdf|afeg fd d2:|
a3f df (a2|a)3f gfed|a3b afdf|gfed Bcdf|
a3f df (a2|a)3f gfed|afbf afed|1 B3A Bcdf:|2 B3A Bc d2||
f3e fedB|A2 dA B2 AG|FD D2 AD D2|F2 AF GFED|
f3e fedB|A2 dA B2 AG|A2 dB ABdf|afeg fd d2:|
a3f df (a2|a)3f gfed|abaf dfaf|gfed (3Bcd ef|
a3f df (a2|a)3f gfed|afbf afed|1 B3A Bcdf:|2 B3A Bc d2||

